frontend/public/svg/finance/coin.svg

<svg width="96" height="167" viewBox="0 0 96 167" fill="none" xmlns="http://www.w3.org/2000/svg">
<g clip-path="url(#clip0)">
<path d="M12.2653 75.7519C8.2315 71.8795 5.09156 67.8305 3.14224 62.9465C-0.6107 53.5609 -0.394107 44.0801 2.66114 34.6203C7.21942 20.509 16.5178 10.4356 29.7023 3.92801C37.0296 0.310282 44.888 0.303794 52.7739 1.42941C67.2961 3.50344 76.2163 12.4001 81.3286 25.536C86.956 39.9952 86.2655 54.2737 79.3221 68.202C79.1777 68.5492 79.0537 68.9043 78.95 69.2659C79.3891 69.4576 79.7639 69.6433 80.1531 69.791C87.89 72.6677 92.5073 78.0267 93.4636 86.3662C94.0635 91.6024 94.7828 96.8249 95.3886 102.061C95.5737 103.171 95.5514 104.306 95.323 105.408C94.4179 108.738 94.754 112.081 94.8511 115.443C94.9679 119.481 94.8734 123.525 94.945 127.566C95.0237 132.054 95.2298 136.539 95.2967 141.027C95.3414 144.046 95.2311 147.066 95.2042 150.085C95.1648 153.945 92.9425 156.3 89.7113 157.868C83.6612 160.828 77.2409 162.966 70.623 164.222C57.4647 166.687 44.2671 166.446 31.0734 164.615C26.2979 163.954 21.5348 163.122 16.8256 162.097C14.3123 161.545 11.8789 160.678 9.5829 159.516C8.04976 158.785 6.75303 157.637 5.8406 156.203C4.92815 154.77 4.43664 153.11 4.42209 151.411C3.91802 140.204 2.92499 129.024 3.5426 117.769C3.83664 112.421 3.11795 107.026 3.12123 101.652C3.13361 97.5003 3.36298 93.3516 3.80842 89.2239C4.32299 84.3617 6.26706 80.1546 10.4407 77.2444C10.9743 76.8663 11.4574 76.4135 12.2653 75.7519ZM45.7688 77.9178C47.4011 77.7511 49.8683 77.6021 52.3006 77.2312C62.1063 75.7341 69.0432 70.4355 72.5461 61.1344C76.9213 49.5172 76.0319 38.1115 70.7707 26.8907C62.1273 8.45879 36.4481 3.81254 21.8229 19.2614C14.9452 26.5271 10.5622 34.9565 9.45885 44.816C7.93483 58.4415 13.6935 69.2587 26.8347 74.5626C32.6427 76.9051 38.7473 77.5916 45.7688 77.9158V77.9178ZM87.2888 92.1944C85.495 93.133 84.0727 93.9994 82.5579 94.638C80.9118 95.3422 79.2138 95.9192 77.4798 96.3642C60.4853 100.622 42.9152 102.111 25.4466 100.773C20.8778 100.426 16.3235 99.6518 12.0809 97.6886C11.4325 97.388 10.7341 97.1957 9.64131 96.8032C10.0817 102.532 10.4945 107.849 10.8916 113.057C18.5419 116.222 44.9982 117.766 58.4335 115.377C68.5411 113.58 78.505 111.012 87.2888 106.057V92.1944ZM11.2119 119.685C11.5362 124.682 11.8486 129.365 12.1393 134.05C12.2279 135.474 13.221 135.945 14.3709 136.15C17.5692 136.725 20.7603 137.463 23.9882 137.732C36.6555 138.688 49.3927 138.042 61.8982 135.809C69.2021 134.567 76.4277 133.077 83.4164 130.483C85.7195 129.63 86.5438 128.373 86.6324 126.11C86.7637 122.745 87.0742 119.388 87.275 116.026C87.2599 115.29 87.1995 114.555 87.0932 113.827C62.4844 124.973 37.2042 123.634 11.2119 119.683V119.685ZM86.832 150.198C86.532 146.271 86.2412 142.501 85.9531 138.699C61.7906 145.137 37.5895 147.772 12.7491 142.87C12.5259 146.362 12.3001 149.898 12.0566 153.719C14.0256 154.303 15.7932 155.078 17.6355 155.332C25.2956 156.39 32.9649 157.406 40.6539 158.22C50.1052 159.219 59.4967 158.257 68.7984 156.63C75.1117 155.452 81.1986 153.28 86.832 150.196V150.198ZM73.3508 76.2559C72.7791 76.7324 72.256 77.1531 71.75 77.5922C65.5757 82.9545 58.2668 85.4749 50.2292 86.0629C39.4056 86.8545 28.9639 85.4788 19.1766 80.4368C18.4901 80.083 17.2076 79.8901 16.7435 80.2753C14.8186 81.7902 13.0718 83.519 11.5368 85.4283C10.3147 87.0474 10.7006 88.6384 12.3599 89.8395C13.6775 90.8791 15.2031 91.6241 16.8335 92.0231C21.3309 92.9433 25.8824 93.5767 30.4603 93.9193C38.9899 94.3748 47.5438 93.9259 55.9788 92.5797C62.5001 91.5499 68.9684 90.1178 75.3986 88.6043C77.4516 88.0464 79.3799 87.1032 81.0805 85.8253C83.5614 84.0532 83.5595 82.478 81.5734 80.213C80.539 79.0349 79.2775 78.0773 77.8651 77.3966C76.452 76.7167 74.9168 76.3281 73.3508 76.254V76.2559Z" fill="black"/>
<path d="M39.9151 64.9076C37.482 64.0655 35.3489 63.3837 33.2631 62.5796C32.3209 62.2198 31.4374 61.7219 30.6417 61.1022C28.9654 59.7771 28.5637 57.9413 29.4498 56.3392C30.2164 54.9523 31.4562 54.5295 33.5565 55.0362C35.5977 55.5278 37.6258 56.0864 40.112 56.7382C40.3167 53.3082 40.4933 50.3593 40.6777 47.2791C39.2489 46.8971 38.078 46.5918 36.911 46.2715C29.0133 44.1056 26.1471 37.6966 29.7865 30.3784C31.9189 26.0905 35.4546 23.5525 40.1402 22.23C40.2025 20.9829 40.0365 19.7023 40.3994 18.5957C40.5653 18.1626 40.8217 17.7699 41.1515 17.4438C41.4813 17.1177 41.877 16.8658 42.312 16.7049C42.843 16.5599 43.9653 17.35 44.3007 17.9939C44.8488 19.044 44.9715 20.3207 45.322 21.6891C46.2317 22.0226 47.3021 22.327 48.2939 22.7989C49.5882 23.4146 50.5838 24.3965 50.2419 25.9626C49.8822 27.6119 48.6207 27.9204 47.1112 27.6507C46.6247 27.6432 46.1387 27.6832 45.66 27.7701C45.8969 32.2988 46.1339 36.8276 46.3774 41.4804C47.4931 41.8932 48.5256 42.2739 49.5567 42.6565C53.6621 44.1805 56.4594 46.9731 57.0389 51.3719C57.6139 55.7352 55.7072 59.2171 52.2476 61.8464C51.4786 62.501 50.6138 63.0341 49.6833 63.427C47.948 64.0347 46.8493 65.0067 46.506 66.897C46.4276 67.5796 46.0972 68.2084 45.5793 68.66C45.0615 69.1115 44.3936 69.3537 43.7067 69.3386C42.1466 69.3872 41.2185 68.5024 40.702 67.1071C40.4303 66.3792 40.1776 65.6466 39.9151 64.9076ZM40.5714 28.7939C37.3494 30.0607 35.9619 31.4055 34.9591 34.0387C33.8577 36.9312 34.6158 38.7644 37.503 39.9392C38.5074 40.2673 39.5325 40.5284 40.5714 40.7208V28.7939ZM46.844 48.3115V55.9499C49.1497 55.0888 50.3974 53.8333 50.49 51.7094C50.5668 50.0036 49.6682 49.2028 46.8466 48.3115H46.844Z" fill="black"/>
</g>
<defs>
<clipPath id="clip0">
<rect width="95.8253" height="166.053" fill="white" transform="translate(0.0756836 0.483398)"/>
</clipPath>
</defs>
</svg>

<svg xmlns="http://www.w3.org/2000/svg" width="96" height="167" fill="none" viewBox="0 0 96 167"><g fill="#000" clip-path="url(#a)"><path d="M12.265 75.752c-4.033-3.873-7.173-7.921-9.123-12.805C-.61 53.56-.394 44.08 2.662 34.62 7.218 20.51 16.517 10.436 29.701 3.928 37.03.31 44.888.304 52.774 1.429 67.296 3.503 76.216 12.4 81.329 25.536c5.627 14.46 4.937 28.738-2.007 42.666a10 10 0 0 0-.372 1.064c.44.192.814.377 1.203.525 7.737 2.877 12.354 8.236 13.31 16.575.6 5.236 1.32 10.459 1.926 15.695a9.1 9.1 0 0 1-.066 3.347c-.905 3.33-.569 6.673-.472 10.035.117 4.038.022 8.082.094 12.123.079 4.488.285 8.973.352 13.461.044 3.019-.066 6.039-.093 9.058-.04 3.86-2.261 6.215-5.493 7.783a75.5 75.5 0 0 1-19.088 6.354c-13.158 2.465-26.356 2.224-39.55.393a189 189 0 0 1-14.247-2.518 30.6 30.6 0 0 1-7.243-2.581 9.07 9.07 0 0 1-5.16-8.105c-.505-11.207-1.498-22.387-.88-33.642.294-5.348-.425-10.743-.422-16.117.013-4.152.242-8.3.687-12.428.515-4.862 2.46-9.07 6.633-11.98.533-.378 1.016-.83 1.824-1.492m33.504 2.166c1.632-.167 4.1-.316 6.532-.687 9.805-1.497 16.742-6.795 20.245-16.097 4.375-11.617 3.486-23.022-1.775-34.243-8.644-18.432-34.323-23.078-48.948-7.63-6.878 7.266-11.26 15.696-12.364 25.555-1.524 13.625 4.235 24.443 17.376 29.747 5.808 2.342 11.912 3.029 18.934 3.353zm41.52 14.276c-1.794.939-3.216 1.805-4.731 2.444a35 35 0 0 1-5.078 1.726 162.9 162.9 0 0 1-52.033 4.409c-4.57-.347-9.123-1.121-13.366-3.084-.649-.301-1.347-.493-2.44-.886.44 5.729.854 11.046 1.25 16.254 7.65 3.165 34.107 4.709 47.543 2.32 10.107-1.797 20.071-4.365 28.855-9.32zm-76.077 27.491c.324 4.997.637 9.68.927 14.365.089 1.424 1.082 1.895 2.232 2.1 3.198.575 6.39 1.313 9.617 1.582a151 151 0 0 0 37.91-1.923c7.304-1.242 14.53-2.732 21.518-5.326 2.303-.853 3.128-2.11 3.216-4.373.132-3.365.442-6.722.643-10.084a18 18 0 0 0-.182-2.199c-24.609 11.146-49.889 9.807-75.881 5.856zm75.62 30.513c-.3-3.927-.59-7.697-.879-11.499-24.162 6.438-48.363 9.073-73.204 4.171l-.692 10.849c1.969.584 3.736 1.359 5.579 1.613 7.66 1.058 15.329 2.074 23.018 2.888 9.451.999 18.843.037 28.144-1.59a60.8 60.8 0 0 0 18.034-6.434zM73.351 76.256c-.572.476-1.095.897-1.601 1.336-6.174 5.362-13.483 7.883-21.52 8.47-10.824.793-21.266-.583-31.053-5.625-.687-.354-1.97-.547-2.433-.162a32.4 32.4 0 0 0-5.207 5.153c-1.222 1.62-.836 3.21.823 4.412a11.7 11.7 0 0 0 4.474 2.183A108 108 0 0 0 30.46 93.92c8.53.456 17.084.007 25.519-1.34 6.521-1.03 12.99-2.461 19.42-3.975a16.8 16.8 0 0 0 5.682-2.779c2.48-1.772 2.478-3.347.492-5.612a11.7 11.7 0 0 0-8.222-3.959z"/><path d="M39.915 64.908c-2.433-.843-4.566-1.524-6.652-2.328a10.2 10.2 0 0 1-2.621-1.478c-1.677-1.325-2.078-3.16-1.192-4.763.766-1.387 2.006-1.81 4.107-1.303 2.04.492 4.069 1.05 6.555 1.702l.566-9.459c-1.43-.382-2.6-.687-3.767-1.008-7.898-2.165-10.764-8.574-7.125-15.893 2.133-4.288 5.669-6.826 10.354-8.148.063-1.247-.104-2.528.26-3.634a3.26 3.26 0 0 1 1.912-1.891c.531-.145 1.653.645 1.989 1.289.548 1.05.67 2.327 1.021 3.695.91.334 1.98.638 2.972 1.11 1.294.616 2.29 1.598 1.948 3.164-.36 1.649-1.621 1.957-3.13 1.688a7.5 7.5 0 0 0-1.452.12l.717 13.71 3.18 1.175c4.105 1.525 6.902 4.317 7.482 8.716.575 4.363-1.332 7.845-4.791 10.474a9.9 9.9 0 0 1-2.565 1.581c-1.735.608-2.834 1.58-3.177 3.47a2.756 2.756 0 0 1-2.8 2.442c-1.56.048-2.488-.837-3.004-2.232-.272-.728-.524-1.46-.787-2.2m.656-36.114c-3.222 1.267-4.61 2.611-5.612 5.245-1.101 2.892-.343 4.725 2.544 5.9 1.004.328 2.03.59 3.068.782zm6.273 19.518v7.638c2.306-.861 3.553-2.117 3.646-4.24.077-1.706-.822-2.507-3.643-3.398z"/></g><defs><clipPath id="a"><path fill="#fff" d="M.076.483H95.9v166.053H.076z"/></clipPath></defs></svg>
